X:295
T: O'er the Mountains
N: O'Farrell's Pocket Companion v.3 (Sky ed. p.132)
N: "Irish"
M: C
L: 1/8
R: hornpipe
Q: 320
K: G
GA/B/| cBAG E2 DD| EGGG G4| GABc d2 de| cBAG B4|
GABc d2 eg| e/d/c/B/ AG Bd Hg (3f/e/d/| cBAG E2 DD|
EGGG G2 :|
